icons/Weather/moon-foggy-fill.svg

<svg viewBox="0 0 24 24" xmlns="http://www.w3.org/2000/svg"><path d="M16 20.3344V18H14V14H3.33238C3.11567 13.2034 3 12.3652 3 11.5C3 6.93948 6.21346 3.12954 10.4996 2.21094C10.1765 3.07935 10 4.01903 10 4.99995C10 9.41823 13.5817 13 18 13C19.4531 13 20.8157 12.6125 21.9902 11.9354C21.8178 15.7576 19.3867 18.9916 16 20.3344ZM7 20H14V22H7V20ZM2 16H12V18H2V16Z"/></svg>

<svg xmlns="http://www.w3.org/2000/svg" viewBox="0 0 24 24">
    <g>
        <path fill="none" d="M0 0h24v24H0z"/>
        <path fill-rule="nonzero" d="M16 20.334V18h-2v-4H3.332A9.511 9.511 0 0 1 3 11.5c0-4.56 3.213-8.37 7.5-9.289a8 8 0 0 0 11.49 9.724 9.505 9.505 0 0 1-5.99 8.4zM7 20h7v2H7v-2zm-5-4h10v2H2v-2z"/>
    </g>
</svg>
